src/assets/svg/ic_parameter.svg

<svg xmlns="http://www.w3.org/2000/svg" width="16" height="16">
    <path d="M6.913 3L3.666 13h2.045l.521-2h3.533l.498 2H12.4L9.02 3H6.913zM6.9 9L8 5.232 9.1 9H6.9zM16 7.896c0-1.06-.148-2.104-.445-3.133-.295-1.031-.711-1.844-1.248-2.763h-1.016c.486 1.294.82 2.234 1 3.145.18.898.269 1.85.271 2.855a14.655 14.655 0 01-.271 2.855c-.18.91-.514 1.851-1 3.145h1.016c.537-.919.953-1.732 1.248-2.764.297-1.028.445-2.073.445-3.132 0-.034-.003-.07-.004-.104.001-.034.004-.07.004-.104zM2.75 2H1.734C1.197 2.919.781 3.732.486 4.764a11.235 11.235 0 00-.445 3.132c0 .034.003.07.004.104-.001.034-.004.07-.004.104 0 1.06.148 2.104.445 3.133.295 1.031.711 1.844 1.248 2.763H2.75c-.486-1.294-.82-2.234-1-3.145A14.655 14.655 0 011.479 8c.002-1.006.091-1.957.271-2.855.18-.911.514-1.851 1-3.145z"/>
</svg>

<?xml version="1.0" encoding="utf-8"?>
<!-- Generator: Adobe Illustrator 16.0.4, SVG Export Plug-In . SVG Version: 6.00 Build 0)  -->
<!DOCTYPE svg PUBLIC "-//W3C//DTD SVG 1.1//EN" "http://www.w3.org/Graphics/SVG/1.1/DTD/svg11.dtd">
<svg version="1.1" id="artwork" xmlns="http://www.w3.org/2000/svg" xmlns:xlink="http://www.w3.org/1999/xlink" x="0px" y="0px"
	 width="16px" height="16px" viewBox="0 0 16 16" enable-background="new 0 0 16 16" xml:space="preserve">
<g>
	<path d="M6.913,3L3.666,13h2.045l0.521-2h3.533l0.498,2H12.4L9.02,3H6.913z M6.9,9L8,5.232L9.1,9H6.9z"/>
	<path d="M16,7.896c0-1.06-0.148-2.104-0.445-3.133C15.26,3.732,14.844,2.919,14.307,2h-1.016
		c0.486,1.294,0.82,2.234,1,3.145c0.18,0.898,0.269,1.85,0.271,2.855c-0.002,1.006-0.091,1.957-0.271,2.855
		c-0.18,0.91-0.514,1.851-1,3.145h1.016c0.537-0.919,0.953-1.732,1.248-2.764C15.852,10.208,16,9.163,16,8.104
		C16,8.07,15.997,8.034,15.996,8C15.997,7.966,16,7.93,16,7.896z"/>
	<path d="M2.75,2H1.734C1.197,2.919,0.781,3.732,0.486,4.764C0.189,5.792,0.041,6.837,0.041,7.896
		C0.041,7.93,0.044,7.966,0.045,8C0.044,8.034,0.041,8.07,0.041,8.104c0,1.06,0.148,2.104,0.445,3.133
		C0.781,12.268,1.197,13.081,1.734,14H2.75c-0.486-1.294-0.82-2.234-1-3.145C1.57,9.957,1.481,9.006,1.479,8
		C1.481,6.994,1.57,6.043,1.75,5.145C1.93,4.234,2.264,3.294,2.75,2z"/>
</g>
</svg>
